X: 140
T: Through the Gates
C: Russ Barenberg
R: reel
Z: 2011 John Chambers <jc:trillian.mit.edu>
M: C|
L: 1/8
K: D
DE |\
"D"EF-FF- FEDB, | A,B,DE F2A2 | "G"Bd-dd- dBAF | "D"AFDF "A7"E2DE |
"D(Bm)"EF-FF- FEDB, | A,B,DE F2A2 | "G"Bd-dd- dBAF | "A7"AFEF "D"D2 :|
|: zA |\
"D"(B/c/d) dd- dd (B/c/d) | ddBd efed | "Bm"(B/c/d) dd- dd (B/c/d) | dBAB "A7"AFED |
"D(G)"(B/c/d) dd- dd (B/c/d) | ddBd efaf | "Bm(Em)"edBd "D"AFAB | "G"dABd "A7"AFED :|

